public/avatar/hat/196.svg

<svg xmlns:xlink="http://www.w3.org/1999/xlink" height="92.9" width="100.7" xmlns="http://www.w3.org/2000/svg"><g transform="translate(38.65 49.75)"><use height="27.85" transform="translate(-19.65 -2.1)" width="38.4" xlink:href="#a"/><use height="25.9" transform="translate(-17.75 -16.5)" width="32.05" xlink:href="#b"/><use height="17.3" transform="translate(-14.1 -13.4)" width="20.25" xlink:href="#c"/><use height="24.05" transform="translate(-17.1 -15.5)" width="30.4" xlink:href="#d"/><use height="24" transform="translate(-17.1 -15.45)" width="22.7" xlink:href="#e"/><use height="8.05" transform="translate(-11.3 -4.25)" width="17.4" xlink:href="#f"/><use height="7.7" transform="translate(-8.85 .1)" width="21.5" xlink:href="#g"/><use height="4.1" transform="translate(-11.15 -1.15)" width="1.5" xlink:href="#h"/><use height="6.85" transform="translate(-6.45 -3.05)" width="11.95" xlink:href="#i"/><use height="11.8" transform="translate(-8.1 -11.5)" width="13.2" xlink:href="#j"/></g><defs><use height="27.85" width="38.4" xlink:href="#k" id="x"/><use height="23.5" width="35.25" xlink:href="#l" id="y"/><use height="18.65" width="30.65" xlink:href="#m" id="z"/><use height="17.05" width="21.5" xlink:href="#n" id="A"/><use height="25.9" width="32.05" xlink:href="#o" id="b"/><use height="17.3" width="20.25" xlink:href="#p" id="c"/><use height="24.05" width="30.4" xlink:href="#q" id="d"/><use height="24" width="22.7" xlink:href="#r" id="e"/><use height="8.05" width="17.4" xlink:href="#s" id="f"/><use height="7.7" width="21.5" xlink:href="#t" id="g"/><use height="4.1" width="1.5" xlink:href="#u" id="h"/><use height="6.85" width="11.95" xlink:href="#v" id="i"/><use height="11.8" width="13.2" xlink:href="#w" id="j"/><path d="M23.15 20.85q-1.25-3.7-4.35-8.2l-2.9-3.8q-1.35.8-3.05 3.6-3.4 5.55-5.1 15.4-1.45-4-1.75-7.95v-3.2l-2.35 8.75q-.6-3.65-.6-7.05l.1-2.7L0 21.1q-.2-8.35 3.65-13.25 3.85-5 9.25-4.9l2.2-1.65Q18.2-.3 22.4.1q4.8.45 10.2 5.15 5.05 4.4 5.8 7.85l-3-2.5 1.3 2.9q1.4 3.35 1.7 5.85-2.05-3.35-3.95-5.4L32.9 12.6q3.35 8.85 1.75 14.6-1.4-6-3.85-10.15l-2.15-2.95.4 3.8q.3 4.25-.4 6.7-1.25-5.15-3.35-8.95l-1.9-2.8.15 2.65q.05 3.05-.4 5.35" fill="#1d1b1f" fill-rule="evenodd" id="k"/><path d="M34.65 8.95h-.1l-2-.7 2.7 5.75-3-3-2.15-1.3.9 2.35.95 3.1q1 3.65 1.15 6.6-1.4-4.05-3.25-6.95l-1.75-2.2-1.8-1.7.4 2.45.5 5.95v.25q-1.25-3.45-2.8-6.1l-1.5-2.05-1.75-1.9.45 5.8-.05 1.4q-1.45-3.05-3.85-6.35l-2.25-2.9-.5-.55-.6.35Q9.4 10.4 6.5 23.5q-.8-3.2-.8-6.1l.1-4.45-1.15 1.8Q3.4 17 2.85 19.7l.1-6.95Q.7 15.3 0 16.45.75 10.7 3.2 7.5q3.55-4.6 8.6-4.55h.4l.25-.3 2.1-1.55q2.8-1.4 6.65-1 3.35.3 7.4 3.15 3.65 2.5 6.05 5.7" fill="#2b282d" fill-rule="evenodd" id="l"/><path d="m30.15 6.15-4.4-1.45 4.9 4.6q-1.2-1.05-4.05-2.7l-2.95-1.65 4.85 7.35Q25.05 7.45 18 4.15q2.15 2 5.4 6.75-3.65-4.2-7.4-6.35 2.6 3.65 3.25 8.6l-2.9-4.6q-3.05-4.5-3.95-3.9-3.3 2.35-7.15 14 .25-2.45 1.35-6.1l1-3.1L5 13.7l.5-5.3q-1.35 1-3.35 4.8l2.1-5.3Q2.65 8.95 0 12.2q2.25-6.1 7.3-8.55 2.55-1.2 4.6-1.2l2-1.45q2.65-1.4 5.85-.85 5.1.8 10.4 6" fill="#3b383e" fill-rule="evenodd" id="m"/><path d="m32 16.7.05.45q0 2.65-4.75 5.05Q23 24.3 17 25.25q-11.1 1.8-15.55-1.4-1.25-.95-1.4-2.1L0 21.3q0-3 6.05-5.6Q4.7 10.35 3.1 7.3l-.35-.9v-.3q0-4 10.2-5.7 10.35-1.45 11.4 2.4l-.05-.05v1.2l.05-.2-.05 1.7q0 3.2.35 7.4 6.9.7 7.35 3.85" fill="#1d1b1f" fill-rule="evenodd" id="o"/><path d="M16.9 2.45q2.5-1.3 2.5-2.45h.3q-.3 7.2.55 12.85.2 1.15-2.1 2.4-2.3 1.25-5.75 1.75-3.45.55-6 .1-2.55-.45-2.75-1.65Q2.55 8.6 0 3.8l.95-.15q.7.6 2.6.95 2.85.45 6.8-.15 3.9-.65 6.55-2" fill="#2b282d" fill-rule="evenodd" id="p"/><path d="M14.75 2.35q2.3-1.3 2.35-2.35l.3 3.6q.2 1.2-2.1 2.4Q13 7.2 9.55 7.75t-6 .1Q1 7.4.8 6.2L0 2.65l.05.05q.2 1.2 2.75 1.65 2.55.45 6-.1 3.4-.5 5.95-1.9" fill="#626063" fill-rule="evenodd" id="s"/><path d="m0 0 .85.75.65 3.35-.75-.7L0 0" fill="#bbbdc2" fill-rule="evenodd" id="u"/><path d="M6.9 6.05q1.25-.85 2.95-1.3-2.75 2.2-5.4 7.8-1.15 2.4-1.9 4.5L5.7 7.5l-2.95 3.65q.25-2.35 1-4.1L1.1 9.3l1.75-2.8L0 8.15l2.1-2.1q2.5-2.2 4.75-3L4.6 6.25l2.85-2.1L6 6.8l.9-.75m-5.95 0Q2.5 3.5 5.25 2.8L.95 6.05m19.2-.6-3.35-1.8-3.2-1.25 1.75 2.25L12.2 2.9l3.55 8.15L11.2 4.3l-.75-2.15 2.4.15-1.15-1.05 3.3-.7h-3L15.75 0q1.85.25 5.75 2.05l-4-.75 2.85 1.6-3.75-.5 3.55 3.05" id="n" fill="#626063" fill-rule="evenodd"/><path d="m23.25 14.95-.3-2.3 2.4.3q4.65.85 5 3 .35 2.15-3.85 4.35-4.2 2.25-10.5 3.2-6.25 1-10.95.2-4.65-.85-5-3-.35-2.15 3.85-4.4 1.1-.55 2.35-1.05l.4 2.3q.2 1.2 2.75 1.65 2.55.45 6-.1 3.45-.5 5.75-1.75t2.1-2.4m-.9-13q.2 1.25-2.45 2.6-2.65 1.35-6.55 2-3.95.6-6.8.15-2.9-.5-3.1-1.75-.15-1.3 2.5-2.65Q8.55.95 12.5.35q3.9-.6 6.8-.15 2.85.5 3.05 1.75" id="q" fill="#3b393e" fill-rule="evenodd"/><path d="M7.8 7.4 6.4 3.6l3.35-.7q3.65-1.1 5.1-2.9l6.6.2q.35 1.05-1.2 2.5Q17.2 5.55 7.8 7.4m-4-3.7v4L0 7.6l2.6-4 1.2.1" id="t" fill="#2b282d" fill-rule="evenodd"/><path d="M3.25 3.15q7.1-1.05 8.3-3.15l.4 3.8Q10.35 5.4 7 6.25l-3 .5-.75-3.6M1.1 3.3l.3 3.55H.25L0 3.35l1.1-.05" id="v" fill="#3b383e" fill-rule="evenodd"/><path d="M4.2 3.25q6-.8 8.5-3.25-.25 2.25.5 8.45-.65.9-3.3 1.95-2.75 1-5 1.2l-.7-8.35m-2.65.35 1.25 8.15-1.15.05L0 3.55l1.55.05" id="w" fill="#1b191e" fill-rule="evenodd"/><g id="a" transform="translate(19.2 13.9)"><use height="27.85" transform="translate(-19.2 -13.9)" width="38.4" xlink:href="#x"/><use height="23.5" transform="translate(-18.1 -13.05)" width="35.25" xlink:href="#y"/><use height="18.65" transform="translate(-16.6 -12.25)" width="30.65" xlink:href="#z"/><use height="17.05" transform="translate(-13.7 -11.6)" width="21.5" xlink:href="#A"/></g><g id="r" fill="#86888b" fill-rule="evenodd"><path d="M22.35 1.9q-.1-.65-.9-1.05 1.15.5 1.25 1.35.25 1.4-2.55 2.9-2.8 1.45-6.95 2.1-4.1.65-7.15.1-3.05-.55-3.3-2-.2-1.45 2.6-2.9Q8.15.95 12.25.3L13.8.15 12.5.3Q8.55.9 5.95 2.25 3.3 3.6 3.45 4.9q.2 1.25 3.1 1.75 2.85.45 6.8-.15 3.9-.65 6.55-2t2.45-2.6"/><path d="m2.9 5.7 1.15 1q1.1 1.75 2.75 8.35-.3.1-.8-.55-.9-3.95-3.1-8.8m3.25 9.6.15.7q-1.65.6-3.1 1.55-2.95 1.9-2.15 3.5Q2.4 23.7 10.75 24 2.3 24.1.4 21.5q-1.35-1.85 2.05-4.2 1.7-1.2 3.7-2"/></g></defs></svg>

<?xml version="1.0" encoding="UTF-8" standalone="no"?>
<svg xmlns:xlink="http://www.w3.org/1999/xlink" height="92.9px" width="100.7px" xmlns="http://www.w3.org/2000/svg">
  <g transform="matrix(1.0, 0.0, 0.0, 1.0, 38.65, 49.75)">
    <use height="27.85" transform="matrix(1.0, 0.0, 0.0, 1.0, -19.65, -2.1)" width="38.4" xlink:href="#sprite0"/>
    <use height="25.9" transform="matrix(1.0, 0.0, 0.0, 1.0, -17.75, -16.5)" width="32.05" xlink:href="#sprite5"/>
    <use height="17.3" transform="matrix(1.0, 0.0, 0.0, 1.0, -14.1, -13.4)" width="20.25" xlink:href="#sprite6"/>
    <use height="24.05" transform="matrix(1.0, 0.0, 0.0, 1.0, -17.1, -15.5)" width="30.4" xlink:href="#sprite7"/>
    <use height="24.0" transform="matrix(1.0, 0.0, 0.0, 1.0, -17.1, -15.45)" width="22.7" xlink:href="#sprite8"/>
    <use height="8.05" transform="matrix(1.0, 0.0, 0.0, 1.0, -11.3, -4.25)" width="17.4" xlink:href="#sprite9"/>
    <use height="7.7" transform="matrix(1.0, 0.0, 0.0, 1.0, -8.85, 0.1)" width="21.5" xlink:href="#sprite10"/>
    <use height="4.1" transform="matrix(1.0, 0.0, 0.0, 1.0, -11.15, -1.15)" width="1.5" xlink:href="#sprite11"/>
    <use height="6.85" transform="matrix(1.0, 0.0, 0.0, 1.0, -6.45, -3.05)" width="11.95" xlink:href="#sprite12"/>
    <use height="11.8" transform="matrix(1.0, 0.0, 0.0, 1.0, -8.1, -11.5)" width="13.2" xlink:href="#sprite13"/>
  </g>
  <defs>
    <g id="sprite0" transform="matrix(1.0, 0.0, 0.0, 1.0, 19.2, 13.9)">
      <use height="27.85" transform="matrix(1.0, 0.0, 0.0, 1.0, -19.2, -13.9)" width="38.4" xlink:href="#sprite1"/>
      <use height="23.5" transform="matrix(1.0, 0.0, 0.0, 1.0, -18.1, -13.05)" width="35.25" xlink:href="#sprite2"/>
      <use height="18.65" transform="matrix(1.0, 0.0, 0.0, 1.0, -16.6, -12.25)" width="30.65" xlink:href="#sprite3"/>
      <use height="17.05" transform="matrix(1.0, 0.0, 0.0, 1.0, -13.7, -11.6)" width="21.5" xlink:href="#sprite4"/>
    </g>
    <g id="sprite1" transform="matrix(1.0, 0.0, 0.0, 1.0, 0.0, 0.0)">
      <use height="27.85" transform="matrix(1.0, 0.0, 0.0, 1.0, 0.0, 0.0)" width="38.4" xlink:href="#shape0"/>
    </g>
    <g id="shape0" transform="matrix(1.0, 0.0, 0.0, 1.0, 0.0, 0.0)">
      <path d="M23.15 20.85 Q21.9 17.15 18.8 12.65 L15.9 8.85 Q14.55 9.65 12.85 12.45 9.45 18.0 7.75 27.85 6.3 23.85 6.0 19.9 L6.0 16.7 3.65 25.45 Q3.05 21.8 3.05 18.4 L3.15 15.7 0.0 21.1 Q-0.2 12.75 3.65 7.85 7.5 2.85 12.9 2.95 L15.1 1.3 Q18.2 -0.3 22.4 0.1 27.2 0.55 32.6 5.25 37.65 9.65 38.4 13.1 L35.4 10.6 36.7 13.5 Q38.1 16.85 38.4 19.35 36.35 16.0 34.45 13.95 L32.9 12.6 Q36.25 21.45 34.65 27.2 33.25 21.2 30.8 17.05 L28.65 14.1 29.05 17.9 Q29.35 22.15 28.65 24.6 27.4 19.45 25.3 15.65 L23.4 12.85 23.55 15.5 Q23.6 18.55 23.15 20.85" fill="#1d1b1f" fill-rule="evenodd" stroke="none"/>
    </g>
    <g id="sprite2" transform="matrix(1.0, 0.0, 0.0, 1.0, 0.0, 0.0)">
      <use height="23.5" transform="matrix(1.0, 0.0, 0.0, 1.0, 0.0, 0.0)" width="35.25" xlink:href="#shape1"/>
    </g>
    <g id="shape1" transform="matrix(1.0, 0.0, 0.0, 1.0, 0.0, 0.0)">
      <path d="M34.65 8.95 L34.55 8.95 32.55 8.25 35.25 14.0 32.25 11.0 30.1 9.7 31.0 12.05 31.95 15.15 Q32.95 18.8 33.1 21.75 31.7 17.7 29.85 14.8 L28.1 12.6 26.3 10.9 26.7 13.35 27.2 19.3 27.2 19.55 Q25.95 16.1 24.4 13.45 L22.9 11.4 21.15 9.5 21.6 15.3 21.55 16.7 Q20.1 13.65 17.7 10.35 L15.45 7.45 14.95 6.9 14.35 7.25 Q9.4 10.4 6.5 23.5 5.7 20.3 5.7 17.4 L5.8 12.95 4.65 14.75 Q3.4 17.0 2.85 19.7 L2.95 12.75 Q0.7 15.3 0.0 16.45 0.75 10.7 3.2 7.5 6.75 2.9 11.8 2.95 L12.2 2.95 12.45 2.65 14.55 1.1 Q17.35 -0.3 21.2 0.1 24.55 0.4 28.6 3.25 32.25 5.75 34.65 8.95" fill="#2b282d" fill-rule="evenodd" stroke="none"/>
    </g>
    <g id="sprite3" transform="matrix(1.0, 0.0, 0.0, 1.0, 0.0, 0.0)">
      <use height="18.65" transform="matrix(1.0, 0.0, 0.0, 1.0, 0.0, 0.0)" width="30.65" xlink:href="#shape2"/>
    </g>
    <g id="shape2" transform="matrix(1.0, 0.0, 0.0, 1.0, 0.0, 0.0)">
      <path d="M30.15 6.15 L25.75 4.7 30.65 9.3 Q29.45 8.25 26.6 6.6 L23.65 4.95 28.5 12.3 Q25.05 7.45 18.0 4.15 20.15 6.15 23.4 10.9 19.75 6.7 16.0 4.55 18.6 8.2 19.25 13.15 L16.35 8.55 Q13.3 4.05 12.4 4.65 9.1 7.0 5.25 18.65 5.5 16.2 6.6 12.55 L7.6 9.45 5.0 13.7 5.5 8.4 Q4.15 9.4 2.15 13.2 L4.25 7.9 Q2.65 8.95 0.0 12.2 2.25 6.1 7.3 3.65 9.85 2.45 11.9 2.45 L13.9 1.0 Q16.55 -0.4 19.75 0.15 24.85 0.95 30.15 6.15" fill="#3b383e" fill-rule="evenodd" stroke="none"/>
    </g>
    <g id="sprite4" transform="matrix(1.0, 0.0, 0.0, 1.0, 0.0, 0.0)">
      <use height="17.05" transform="matrix(1.0, 0.0, 0.0, 1.0, 0.0, 0.0)" width="21.5" xlink:href="#shape3"/>
    </g>
    <g id="shape3" transform="matrix(1.0, 0.0, 0.0, 1.0, 0.0, 0.0)">
      <path d="M6.9 6.05 Q8.15 5.2 9.85 4.75 7.1 6.95 4.45 12.55 3.3 14.95 2.55 17.05 L5.7 7.5 2.75 11.15 Q3.0 8.8 3.75 7.05 L1.1 9.3 2.85 6.5 0.0 8.15 2.1 6.05 Q4.6 3.85 6.85 3.05 L4.6 6.25 7.45 4.15 6.0 6.8 6.9 6.05" fill="#626063" fill-rule="evenodd" stroke="none"/>
      <path d="M0.95 6.05 Q2.5 3.5 5.25 2.8 L0.95 6.05" fill="#626063" fill-rule="evenodd" stroke="none"/>
      <path d="M20.15 5.45 L16.8 3.65 13.6 2.4 15.35 4.65 12.2 2.9 15.75 11.05 11.2 4.3 10.45 2.15 12.85 2.3 11.7 1.25 15.0 0.55 12.0 0.55 15.75 0.0 Q17.6 0.25 21.5 2.05 L17.5 1.3 20.35 2.9 16.6 2.4 20.15 5.45" fill="#626063" fill-rule="evenodd" stroke="none"/>
    </g>
    <g id="sprite5" transform="matrix(1.0, 0.0, 0.0, 1.0, 0.0, 0.0)">
      <use height="25.9" transform="matrix(1.0, 0.0, 0.0, 1.0, 0.0, 0.0)" width="32.05" xlink:href="#shape4"/>
    </g>
    <g id="shape4" transform="matrix(1.0, 0.0, 0.0, 1.0, 0.0, 0.0)">
      <path d="M32.0 16.7 L32.05 17.15 Q32.05 19.8 27.3 22.2 23.0 24.3 17.0 25.25 5.9 27.05 1.45 23.85 0.2 22.9 0.05 21.75 L0.0 21.3 Q0.0 18.3 6.05 15.7 4.7 10.35 3.1 7.3 L2.75 6.4 2.75 6.1 Q2.75 2.1 12.95 0.4 23.3 -1.05 24.35 2.8 L24.3 2.75 24.3 3.95 24.35 3.75 24.3 5.45 Q24.3 8.65 24.65 12.85 31.55 13.55 32.0 16.7" fill="#1d1b1f" fill-rule="evenodd" stroke="none"/>
    </g>
    <g id="sprite6" transform="matrix(1.0, 0.0, 0.0, 1.0, 0.0, 0.0)">
      <use height="17.3" transform="matrix(1.0, 0.0, 0.0, 1.0, 0.0, 0.0)" width="20.25" xlink:href="#shape5"/>
    </g>
    <g id="shape5" transform="matrix(1.0, 0.0, 0.0, 1.0, 0.0, 0.0)">
      <path d="M16.9 2.45 Q19.4 1.15 19.4 0.0 L19.7 0.0 Q19.4 7.2 20.25 12.85 20.45 14.0 18.15 15.25 15.85 16.5 12.4 17.0 8.95 17.55 6.4 17.1 3.85 16.65 3.65 15.45 2.55 8.6 0.0 3.8 L0.95 3.65 Q1.65 4.25 3.55 4.6 6.4 5.05 10.35 4.45 14.25 3.8 16.9 2.45" fill="#2b282d" fill-rule="evenodd" stroke="none"/>
    </g>
    <g id="sprite7" transform="matrix(1.0, 0.0, 0.0, 1.0, 0.0, 0.0)">
      <use height="24.05" transform="matrix(1.0, 0.0, 0.0, 1.0, 0.0, 0.0)" width="30.4" xlink:href="#shape6"/>
    </g>
    <g id="shape6" transform="matrix(1.0, 0.0, 0.0, 1.0, 0.0, 0.0)">
      <path d="M23.25 14.95 L22.95 12.65 25.35 12.95 Q30.0 13.8 30.35 15.95 30.7 18.1 26.5 20.3 22.3 22.55 16.0 23.5 9.75 24.5 5.05 23.7 0.4 22.85 0.05 20.7 -0.3 18.55 3.9 16.3 5.0 15.75 6.25 15.25 L6.65 17.55 Q6.85 18.75 9.4 19.2 11.95 19.65 15.4 19.1 18.85 18.6 21.15 17.35 23.45 16.1 23.25 14.95" fill="#3b393e" fill-rule="evenodd" stroke="none"/>
      <path d="M22.35 1.95 Q22.55 3.2 19.9 4.55 17.25 5.9 13.35 6.55 9.4 7.15 6.55 6.7 3.65 6.2 3.45 4.95 3.3 3.65 5.95 2.3 8.55 0.95 12.5 0.35 16.4 -0.25 19.3 0.2 22.15 0.7 22.35 1.95" fill="#3b393e" fill-rule="evenodd" stroke="none"/>
    </g>
    <g id="sprite8" transform="matrix(1.0, 0.0, 0.0, 1.0, 0.0, 0.0)">
      <use height="24.0" transform="matrix(1.0, 0.0, 0.0, 1.0, 0.0, 0.0)" width="22.7" xlink:href="#shape7"/>
    </g>
    <g id="shape7" transform="matrix(1.0, 0.0, 0.0, 1.0, 0.0, 0.0)">
      <path d="M22.35 1.9 Q22.25 1.25 21.45 0.85 22.6 1.35 22.7 2.2 22.95 3.6 20.15 5.1 17.35 6.55 13.2 7.2 9.1 7.85 6.05 7.3 3.0 6.75 2.75 5.3 2.55 3.85 5.35 2.4 8.15 0.95 12.25 0.3 L13.8 0.15 12.5 0.3 Q8.55 0.9 5.95 2.25 3.3 3.6 3.45 4.9 3.65 6.15 6.55 6.65 9.4 7.1 13.35 6.5 17.25 5.85 19.9 4.5 22.55 3.15 22.35 1.9" fill="#86888b" fill-rule="evenodd" stroke="none"/>
      <path d="M2.9 5.7 L4.05 6.7 Q5.15 8.45 6.8 15.05 6.5 15.15 6.0 14.5 5.1 10.55 2.9 5.7" fill="#86888b" fill-rule="evenodd" stroke="none"/>
      <path d="M6.15 15.3 L6.3 16.0 Q4.65 16.6 3.2 17.55 0.25 19.45 1.05 21.05 2.4 23.7 10.75 24.0 2.3 24.1 0.4 21.5 -0.95 19.65 2.45 17.3 4.15 16.1 6.15 15.3" fill="#86888b" fill-rule="evenodd" stroke="none"/>
    </g>
    <g id="sprite9" transform="matrix(1.0, 0.0, 0.0, 1.0, 0.0, 0.0)">
      <use height="8.05" transform="matrix(1.0, 0.0, 0.0, 1.0, 0.0, 0.0)" width="17.4" xlink:href="#shape8"/>
    </g>
    <g id="shape8" transform="matrix(1.0, 0.0, 0.0, 1.0, 0.0, 0.0)">
      <path d="M14.75 2.35 Q17.05 1.05 17.1 0.0 L17.4 3.6 Q17.6 4.8 15.3 6.0 13.0 7.2 9.55 7.75 6.1 8.3 3.55 7.85 1.0 7.4 0.8 6.2 L0.0 2.65 0.05 2.7 Q0.25 3.9 2.8 4.35 5.35 4.8 8.8 4.25 12.2 3.75 14.75 2.35" fill="#626063" fill-rule="evenodd" stroke="none"/>
    </g>
    <g id="sprite10" transform="matrix(1.0, 0.0, 0.0, 1.0, 0.0, 0.0)">
      <use height="7.7" transform="matrix(1.0, 0.0, 0.0, 1.0, 0.0, 0.0)" width="21.5" xlink:href="#shape9"/>
    </g>
    <g id="shape9" transform="matrix(1.0, 0.0, 0.0, 1.0, 0.0, 0.0)">
      <path d="M7.8 7.4 L6.4 3.6 9.75 2.9 Q13.4 1.8 14.85 0.0 L21.45 0.2 Q21.8 1.25 20.25 2.7 17.2 5.55 7.8 7.4" fill="#2b282d" fill-rule="evenodd" stroke="none"/>
      <path d="M3.8 3.7 L3.8 7.7 0.0 7.6 2.6 3.6 3.8 3.7" fill="#2b282d" fill-rule="evenodd" stroke="none"/>
    </g>
    <g id="sprite11" transform="matrix(1.0, 0.0, 0.0, 1.0, 0.0, 0.0)">
      <use height="4.1" transform="matrix(1.0, 0.0, 0.0, 1.0, 0.0, 0.0)" width="1.5" xlink:href="#shape10"/>
    </g>
    <g id="shape10" transform="matrix(1.0, 0.0, 0.0, 1.0, 0.0, 0.0)">
      <path d="M0.0 0.0 L0.85 0.75 1.5 4.1 0.75 3.4 0.0 0.0" fill="#bbbdc2" fill-rule="evenodd" stroke="none"/>
    </g>
    <g id="sprite12" transform="matrix(1.0, 0.0, 0.0, 1.0, 0.0, 0.0)">
      <use height="6.85" transform="matrix(1.0, 0.0, 0.0, 1.0, 0.0, 0.0)" width="11.95" xlink:href="#shape11"/>
    </g>
    <g id="shape11" transform="matrix(1.0, 0.0, 0.0, 1.0, 0.0, 0.0)">
      <path d="M3.25 3.15 Q10.35 2.1 11.55 0.0 L11.95 3.8 Q10.35 5.4 7.0 6.25 L4.0 6.75 3.25 3.15" fill="#3b383e" fill-rule="evenodd" stroke="none"/>
      <path d="M1.1 3.3 L1.4 6.85 0.25 6.85 0.0 3.35 1.1 3.3" fill="#3b383e" fill-rule="evenodd" stroke="none"/>
    </g>
    <g id="sprite13" transform="matrix(1.0, 0.0, 0.0, 1.0, 0.0, 0.0)">
      <use height="11.8" transform="matrix(1.0, 0.0, 0.0, 1.0, 0.0, 0.0)" width="13.2" xlink:href="#shape12"/>
    </g>
    <g id="shape12" transform="matrix(1.0, 0.0, 0.0, 1.0, 0.0, 0.0)">
      <path d="M4.2 3.25 Q10.2 2.45 12.7 0.0 12.45 2.25 13.2 8.45 12.55 9.35 9.9 10.4 7.15 11.4 4.9 11.6 L4.2 3.25" fill="#1b191e" fill-rule="evenodd" stroke="none"/>
      <path d="M1.55 3.6 L2.8 11.75 1.65 11.8 0.0 3.55 1.55 3.6" fill="#1b191e" fill-rule="evenodd" stroke="none"/>
    </g>
  </defs>
</svg>
